build/payment/MastercardM.svg

<svg xmlns="http://www.w3.org/2000/svg" fill="none" viewBox="0 0 28 20" focusable="false"><path fill="none" d="M0 0H28V20H0z"/><rect width="28" height="20" fill="#F5F5F6" rx="2"/><path fill="#FF5F00" fill-rule="evenodd" d="M11.6113 14.4012L16.3638 14.4012L16.3638 5.6853L11.6113 5.6853L11.6113 14.4012Z"/><path fill="#FF5F00" fill-rule="evenodd" d="M11.9228 10C11.9228 8.24561 12.7353 6.68317 14.0002 5.67596C13.0749 4.93939 11.9077 4.5 10.6389 4.5C7.63512 4.5 5.2002 6.96259 5.2002 10C5.2002 13.0374 7.63512 15.5 10.6389 15.5C11.9077 15.5 13.0749 15.0606 14.0002 14.324C12.7353 13.3169 11.9228 11.7544 11.9228 10Z"/><path fill="#EB001B" fill-rule="evenodd" d="M11.9228 10C11.9228 8.24561 12.7353 6.68317 14.0002 5.67596C13.0749 4.93939 11.9077 4.5 10.6389 4.5C7.63512 4.5 5.2002 6.96259 5.2002 10C5.2002 13.0374 7.63512 15.5 10.6389 15.5C11.9077 15.5 13.0749 15.0606 14.0002 14.324C12.7353 13.3169 11.9228 11.7544 11.9228 10Z"/><path fill="#FF5F00" fill-rule="evenodd" d="M22.7883 9.99982C22.7883 13.0377 20.3533 15.5 17.3494 15.5C16.0805 15.5 14.9252 15.0607 14.0002 14.324C15.2652 13.3173 16.0654 11.7543 16.0654 9.99982C16.0654 8.24536 15.2652 6.68317 14.0002 5.67596C14.9252 4.9397 16.0805 4.5 17.3494 4.5C20.3533 4.5 22.7883 6.96228 22.7883 9.99982Z"/><path fill="#F79E1B" fill-rule="evenodd" d="M22.7883 9.99982C22.7883 13.0377 20.3533 15.5 17.3494 15.5C16.0805 15.5 14.9252 15.0607 14.0002 14.324C15.2652 13.3173 16.0654 11.7543 16.0654 9.99982C16.0654 8.24536 15.2652 6.68317 14.0002 5.67596C14.9252 4.9397 16.0805 4.5 17.3494 4.5C20.3533 4.5 22.7883 6.96228 22.7883 9.99982Z"/></svg>

<svg xmlns="http://www.w3.org/2000/svg" fill="none" viewBox="0 0 28 20" focusable="false"><path fill="none" d="M0 0h28v20H0z"/><rect width="28" height="20" fill="#F0F2F5" rx="2"/><path fill="#FF5F00" fill-rule="evenodd" d="M11.61 14.4h4.75V5.68h-4.75z"/><path fill="#EB001B" fill-rule="evenodd" d="M11.92 10c0-1.76.81-3.32 2.08-4.33-.93-.74-2.1-1.17-3.37-1.17-3 0-5.43 2.46-5.43 5.5 0 3.03 2.43 5.5 5.43 5.5 1.27 0 2.44-.44 3.37-1.18A5.5 5.5 0 0 1 11.92 10"/><path fill="#F79E1B" fill-rule="evenodd" d="M22.78 9.99c0 3.04-2.43 5.51-5.44 5.51-1.26 0-2.43-.44-3.36-1.18a5.5 5.5 0 0 0 2.08-4.33c0-1.75-.81-3.31-2.08-4.32.93-.74 2.1-1.17 3.36-1.17 3.01 0 5.44 2.46 5.44 5.49"/></svg>
